dist/svg/chrome.svg

<svg width="16" height="16" viewBox="0 0 16 16" fill="rgb(34, 34, 34)" xmlns="http://www.w3.org/2000/svg"><title>chrome</title><path d="M4.242 6.75898L1.777 2.97198C3.255 1.15298 5.492 0.000976562 7.998 0.000976562C11.101 0.000976562 13.791 1.76798 15.117 4.34998L15.138 4.39498L8.515 4.04698C8.414 4.03798 8.296 4.03298 8.177 4.03298C6.386 4.03298 4.856 5.15298 4.25 6.73098L4.24 6.75998L4.242 6.75898ZM5.303 8.00098C5.303 9.48998 6.51 10.698 8 10.698C9.49 10.698 10.697 9.49098 10.697 8.00098C10.697 6.51198 9.49 5.30398 8 5.30398C6.511 5.30398 5.303 6.51198 5.303 8.00098ZM15.462 5.12298L10.955 5.35498C11.55 6.07798 11.91 7.01298 11.91 8.03198C11.91 8.92698 11.632 9.75598 11.158 10.44L11.167 10.426L7.551 15.987C7.683 15.995 7.837 15.999 7.993 15.999C12.413 15.999 15.995 12.416 15.995 7.99698C15.995 6.96298 15.799 5.97498 15.442 5.06798L15.461 5.12198L15.462 5.12298ZM4.313 9.53598L1.303 3.61698C0.486 4.85098 0 6.36598 0 7.99498C0 11.976 2.906 15.278 6.712 15.895L6.758 15.901L8.813 11.875C8.605 11.911 8.366 11.932 8.122 11.932C6.454 11.932 5.011 10.965 4.324 9.56098L4.313 9.53598Z" fill="rgb(34, 34, 34)" fill-opacity="1.00"/></svg>

<!-- Generated by Trend Micro Style Portal -->
<svg version="1.1" xmlns="http://www.w3.org/2000/svg" width="16" height="16" viewBox="0 0 16 16">
  <title>chrome</title>
  <path fill="rgb(34,34,34)" d="M4.242 6.759l-2.465-3.787c1.478-1.819 3.715-2.971 6.221-2.971 3.103 0 5.793 1.767 7.119 4.349l0.021 0.045-6.623-0.348c-0.101-0.009-0.219-0.014-0.338-0.014-1.791 0-3.321 1.12-3.927 2.698l-0.010 0.029zM5.303 8.001c0 0 0 0 0 0 0 1.489 1.207 2.697 2.697 2.697s2.697-1.207 2.697-2.697c0-1.489-1.207-2.697-2.697-2.697v0c-0 0-0.001 0-0.001 0-1.489 0-2.696 1.207-2.696 2.696 0 0 0 0.001 0 0.001v-0zM15.462 5.123l-4.507 0.232c0.595 0.723 0.955 1.658 0.955 2.677 0 0.895-0.278 1.724-0.752 2.408l0.009-0.014-3.616 5.561c0.132 0.008 0.286 0.012 0.442 0.012 4.42 0 8.002-3.583 8.002-8.002 0-1.034-0.196-2.022-0.553-2.929l0.019 0.054zM4.313 9.536l-3.010-5.919c-0.817 1.234-1.303 2.749-1.303 4.378 0 3.981 2.906 7.283 6.712 7.9l0.046 0.006 2.055-4.026c-0.208 0.036-0.447 0.057-0.691 0.057-1.668 0-3.111-0.967-3.798-2.371l-0.011-0.025z"></path>
</svg>
